X:1
T:Laudate Dominum Omnes Gentes
T:Laudate Dominum Omnes Gentes
T:from "Vesperae Solennes de Confessore" K. 339 No. 5
T:W. A. Mozart (1756-1791)
T:Arr. Mike Magatagan / Georg Pfeifer
C:W. A. Mozart 1780
Z:Arr. Mike Magatagan 2015
%%score 1 { ( 2 4 ) | ( 3 5 ) }
L:1/8
Q:3/8=35
M:6/8
K:Bb
V:1 treble nm="Flute" snm="Fl."
V:2 treble nm="Harp" snm="Hrp."
V:4 treble 
V:3 treble 
V:5 treble 
V:1
 z6 | z6 | z6 | z6 | z6 | z6 | z6 | z6 | z6 | z6 |!p!!<(! (B3- Bc!<)!d) |!<(! (e3- efg) | %12
 (f3- fg)e | (f2 (3e/)f/e/!<)! d2 z |!>(! b3- b2 a | (a2 (3g/)a/g/!>)! f3 |!mp! =e6 | %17
{/g} f3- f2 (e/d/) | (c2 B) B3 | A6 | G3 (g3- | g^fMg bag) | (f3- f2{a} g/f/) | f2 z z3 | %24
 f>cc c2{/c} d | (df)e e3 |!mf! a3- a2{b} (a/g/4f/4) |!>(! b6-!>)! | b!mp!(ba) g(gf) | %29
{/f} e2- e2 Pd2 |!>(! (f3- fe/d/c/!>)!d/) | c4- cB/c/ |!p! (B3- Bfd) |{/d} c2- c/B/ B3 | %34
 (b3- b>ag/f/) | f2- f/e/ d2 z |!mf! _A6 | G3!mp! b3- | (b^fg ba)g | f3- f2 B | %40
!>(! (B3- B2{d} c/!>)!B/) |!p! B6 | z6 | (f3- fg)e | f2 Te d3 |!>(! b3 b2- b/a/4b/4 | %46
 (a2 (3g/)a/g/!>)! f3 |!mp! =e6 | e6 | f6 | _d3 d2 d |!>(! (f3- fe/_d/c/!>)!d/) | c3 z3 | %53
!p! (B3- Bfd) |{d} c2- c/B/ B3 | (b3- b>ag/f/) |{f} e3 d3 |!mf! _a6 | g6!mp! | (b3- ba)g | %60
 f3- fe/d/c/B/ |!>(!{/c} B4- Bd/!>)!c/ |!p! b6 |!p! Tb6- | b^fg bfg | %65
 (c/d/=e/f/).g/a/ (b/a/)(c'/b/).a/g/ | f4- f/g/4f/4 e/4d/4c/4B/4 | Tc6 | B3 z3 | z6 | z6 | z6 |] %72
V:2
!<(! (B3 Bc!<)!d) |!<(! (e3 efg) | (f3 fge) | (((f2 (3e/)))f/e/!<)! d2 z |!>(! (b3 b2 a) | %5
 (a2 (3g/)a/g/!>)! f3 | (e3 egb) | c'2- c'/4(b/4a/4g/4 f/4e/4d/4c/4) B3/2c/4d/4 | b3 ce/f/g/e/ | %9
 d3 cc/d/e/c/ |!p! z/ (D/F/B/F/D/) z/ (D/F/B/F/D/) | z/ (E/G/B/G/E/) z/ (E/G/B/G/E/) | %12
 z/ (C/F/B/F/C/) z/ (C/F/A/F/C/) | z/ (C/F/A/F/C/) z/ (D/F/B/F/D/) | %14
 z/ (D/F/B/F/D/) z/ (D/F/B/F/D/) | z/ (E/G/B/G/E/) z/ (D/F/B/F/D/) | %16
 z/ (C/=E/G/E/C/) z/ (C/E/G/E/C/) | z/ (C/F/A/F/C/) z/ (C/F/A/F/C/) | %18
 z/ (D/F/G/F/D/) z/ (C/=E/G/E/C/) | z/ (C/F/A/F/C/) z/ (D/F/A/F/D/) | %20
 z/ (D/F/G/F/D/) z/ (D/F/G/F/D/) | z/ (D/F/G/F/D/) z/ (D/F/G/F/D/) | %22
 z/ (C/F/A/F/C/) z/ (C/G/B/G/C/) | (A/C/A/C/B/C/) (c/C/d/F/=e/F/ | %24
 f/)(C/F/A/F/C/) z/ (C/F/A/B/F/) | z/ (F/=B/d/c/A/) z/ (F/A/c/A/F/) | %26
 z/ (F/A/c/A/F/) z/ (F/A/c/A/F/) | z/ (F/B/d/B/F/) z/ (B/d/f/d/B/) | %28
 z/!p! (B/g/B/f/B/) z/ (G/e/G/d/G/) | z/ (E/G/c/G/E/) z/ (D/F/B/F/D/) | %30
 z/ (D/F/B/F/D/) z/ (D/F/B/F/D/) | z/ (F/c/F/d/F/ e/F/d/F/c/F/) | z/ (F/B/d/B/F/) z/ (F/B/d/B/F/) | %33
 z/ (F/A/c/A/F/) z/ (F/B/d/B/F/) | z/ (F/B/d/B/F/) z/ (F/B/d/B/F/) | %35
 z/ (C/F/c/F/C/) z/ (D/F/B/F/D/) | z/ (F/_A/B/A/F/) z/ (F/A/B/A/F/) | %37
 z/ (E/G/B/G/E/) z/ (E/G/B/G/E/) | z/ (C/G/B/G/C/) z/ (C/G/B/G/C/) | %39
 z/ (D/F/B/F/D/) z/ (D/F/B/F/D/) | z/ (C/F/B/F/C/) z/ (E/F/A/F/E/) | %41
 z/"_dim." (D/F/B/F/D/) z/ (c/e/f/e/c/) | z/!pp! (B/d/f/d/B/) z/ (C/E/F/E/C/) | %43
 z/ (C/F/B/F/C/) z/ (C/F/A/F/C/) | z/ (C/F/A/F/C/) z/ (D/F/B/F/D/) | %45
 z/ (D/F/B/F/D/) z/ (D/F/B/F/D/) | z/ (E/G/B/G/E/) z/ (D/F/B/F/D/) | %47
 z/ (C/=E/G/E/C/) z/ (C/E/G/E/C/) | c'2- c'/b/4a/4 g/4f/4e/- e2 | F3 f2 d/b/ | %50
 b2- b/a/4g/4 f/4e/4_d/- d2 | z/ (_D/F/B/F/D/) z/ (F/B/_d/B/F/) | (z/ (F/c/F/d/F/) e/F/d/F/c/F/) | %53
 z/ (F/B/d/B/F/) z/ (F/B/d/B/F/) | z/ (F/A/c/A/F/) z/ (F/B/d/B/F/) | %55
 z/ (F/B/d/B/F/) z/ (F/B/d/B/F/) | z/ (C/F/c/F/C/) z/ (D/F/B/F/D/) | %57
 z/ (F/_A/B/A/F/) z/ (F/A/B/A/F/) | z/ (E/G/B/G/E/) z/ (E/G/B/G/E/) | %59
 z/ (C/G/B/G/C/) z/ (C/G/B/G/C/) | z/ (D/F/B/F/D/) z/ (D/F/B/F/D/) | %61
 z/ (C/F/B/F/C/) z/ (E/F/A/F/E/) | z/ (D/F/B/F/D/) z/ ((D/F/B/F/D/)) | z Bd z fb | z bg' z bg' | %65
 z g'b z g'b | z df' z f'b | z fd' z e'a | z/"_dim." (D/F/B/F/D/) z/ (c/e/f/e/c/) | %69
 z/!pp! (B/d/f/d/B/) z/ (C/E/F/E/C/) | z/!ppp! (D/F/B/F/D/) z/ (D/F/B/F/D/) | [DB]6 |] %72
V:3
!p! z/ (D/F/B/F/D/) z/ (D/F/B/F/D/) | z/ (E/G/B/G/E/) z/ (E/G/B/G/E/) | %2
 z/ (C/F/B/F/C/) z/ (C/F/A/F/C/) | z/ (C/F/A/F/C/) z/ (D/F/B/F/D/) | %4
 z/ (D/F/B/F/D/) z/ (D/F/B/F/D/) | z/ (E/G/B/G/E/) z/ (D/F/B/F/D/) | %6
 z/ (E/G/B/G/E/) z/ (E/G/B/G/E/) | z/ (C/E/F/E/C/) z/ (C/E/F/E/C/) | %8
[K:bass] z/ (B,/D/F/D/B,/) z/ (G,/B,/C/B,/G,/) | z/ (B,/D/F/D/B,/) z/ (C/E/F/E/C/) | %10
!p! !tenuto!B, z z !tenuto!B, z z | !tenuto!B, z z !tenuto!B,, z z | %12
 !tenuto!F, z z !tenuto!F, z z | !tenuto!A, z z !tenuto!B,, z z | !tenuto!B, z z !tenuto!B, z z | %15
 !tenuto!B, z z !tenuto!B,, z z | !tenuto!B, z z !tenuto!B, z z | !tenuto!A, z z !tenuto!F, z z | %18
 !tenuto!G, z z !tenuto!C, z z | !tenuto!F, z z !tenuto!D, z z | !tenuto!B, z z !tenuto!B, z z | %21
 !tenuto!B,, z z !tenuto!B,, z z | !tenuto!C, z z !tenuto!C, z z | !tenuto!F,(F,G, A,B,G,) | %24
 !tenuto!A, z z !tenuto!F, z z | !tenuto!F, z z !tenuto!F, z z | !tenuto!E z z !tenuto!E z z | %27
 !tenuto!D z z !tenuto!D z z | !tenuto!E z z !tenuto!E z z | !tenuto!E, z z !tenuto!=E, z z | %30
 !tenuto!F, z z !tenuto!F, z z | !tenuto!F,(A,B, CB,A,) | !tenuto!D, z z !tenuto!D, z z | %33
 !tenuto!E, z z !tenuto!D, z z | !tenuto!D z z !tenuto!D z z | !tenuto!A, z z !tenuto!B, z z | %36
 !tenuto!D, z z !tenuto!D, z z | !tenuto!E, z z !tenuto!E, z z | !tenuto!=E, z z !tenuto!E, z z | %39
 !tenuto!F, z z !tenuto!F, z z | !tenuto!F, z z !tenuto!F, z z |!p! !tenuto!B, z z !tenuto!F, z z | %42
 !tenuto!B, z z !tenuto!F, z z | !tenuto!F, z z !tenuto!F, z z | !tenuto!B, z z !tenuto!B,, z z | %45
 !tenuto!B, z z !tenuto!B, z z | !tenuto!B, z z !tenuto!B,, z z | !tenuto!B, z z !tenuto!B, z z | %48
 z/ E/A,/E/F/A/ z/ E/A,/C/E/F/ | z/ C/B,/D/F/B/ z/ D/B,/D/F/B/ | %50
 z/ B,/=E,/G,/_D/B,/ z/ B,/E,/G,/D/B,/ | !tenuto!F, z z !tenuto!F, z z | !tenuto!F,((A,B, CB,A,)) | %53
 !tenuto!D, z z !tenuto!D, z z | !tenuto!E, z z !tenuto!D, z z | !tenuto!D z z !tenuto!D z z | %56
 !tenuto!A, z z !tenuto!B, z z | !tenuto!D, z z !tenuto!D, z z | !tenuto!E, z z !tenuto!E, z z | %59
 !tenuto!=E, z z !tenuto!E, z z | !tenuto!F, z z !tenuto!F, z z | !tenuto!F, z z !tenuto!F, z z | %62
!p! !tenuto!B, z z !tenuto!F, z z | z/ _A,/B,/D/B,/A,/ z/ A,/B,/D/B,/A,/ | %64
 z/ G,/B,/E/B,/G,/ z/ G,/B,/E/B,/G,/ | z/ G,/B,/C/B,/G,/ z/ G,/B,/C/B,/G,/ | %66
 z/ B,/D/F/D/B,/ z/ B,/D/F/D/B,/ | z/ B,/C/F/C/B,/ z/ A,/C/F/E/C/ | %68
!p! !tenuto!B, z z !tenuto!F, z z | !tenuto!B, z z !tenuto!F, z z | %70
!pp! !tenuto!B, z z !tenuto!B, z z | B,6 |] %72
V:4
 x6 | x6 | x6 | x6 | x6 | x6 | x6 | c6 | x6 | x6 | x6 | x6 | x6 | x6 | x6 | x6 | x6 | x6 | x6 | %19
 x6 | x6 | x6 | x6 | x6 | x6 | x6 | x6 | x6 | x6 | x6 | x6 | x6 | x6 | x6 | x6 | x6 | x6 | x6 | %38
 x6 | x6 | x6 | x6 | x6 | x6 | x6 | x6 | x6 | x6 | x6 | x6 | F6 | x6 | x6 | x6 | x6 | x6 | x6 | %57
 x6 | x6 | x6 | x6 | x6 | x6 | x6 | x6 | x6 | x6 | x6 | x6 | x6 | x6 | x6 |] %72
V:5
 x6 | x6 | x6 | x6 | x6 | x6 | x6 | x6 |[K:bass] x6 | x6 | x6 | x6 | x6 | x6 | x6 | x6 | x6 | x6 | %18
 x6 | x6 | x6 | x6 | x6 | x6 | x6 | x6 | x6 | x6 | x6 | x6 | x6 | x6 | x6 | x6 | x6 | x6 | x6 | %37
 x6 | x6 | x6 | x6 | x6 | x6 | x6 | x6 | x6 | x6 | x6 | x6 | x6 | x6 | x6 | x6 | x6 | x6 | x6 | %56
 x6 | x6 | x6 | x6 | x6 | x6 | x6 | F,3 F,3 | E,3 E,3 | =E,3 E,3 | F,3 F,3 | F,3 F,3 | x6 | x6 | %70
 x6 | x6 |] %72

